pieces/cburnett_purple/qb.svg

<svg width="45" height="45" viewBox="0 0 45 45" fill="none" xmlns="http://www.w3.org/2000/svg">
<path d="M6 14.75C7.51878 14.75 8.75 13.5188 8.75 12C8.75 10.4812 7.51878 9.25 6 9.25C4.48122 9.25 3.25 10.4812 3.25 12C3.25 13.5188 4.48122 14.75 6 14.75Z" fill="#29113C"/>
<path d="M14 11.75C15.5188 11.75 16.75 10.5188 16.75 9C16.75 7.48122 15.5188 6.25 14 6.25C12.4812 6.25 11.25 7.48122 11.25 9C11.25 10.5188 12.4812 11.75 14 11.75Z" fill="#29113C"/>
<path d="M22.5 10.75C24.0188 10.75 25.25 9.51878 25.25 8C25.25 6.48122 24.0188 5.25 22.5 5.25C20.9812 5.25 19.75 6.48122 19.75 8C19.75 9.51878 20.9812 10.75 22.5 10.75Z" fill="#29113C"/>
<path d="M31 11.75C32.5188 11.75 33.75 10.5188 33.75 9C33.75 7.48122 32.5188 6.25 31 6.25C29.4812 6.25 28.25 7.48122 28.25 9C28.25 10.5188 29.4812 11.75 31 11.75Z" fill="#29113C"/>
<path d="M39 14.75C40.5188 14.75 41.75 13.5188 41.75 12C41.75 10.4812 40.5188 9.25 39 9.25C37.4812 9.25 36.25 10.4812 36.25 12C36.25 13.5188 37.4812 14.75 39 14.75Z" fill="#29113C"/>
<path fill-rule="evenodd" clip-rule="evenodd" d="M9 26C17.5 24.5 30 24.5 36 26L38.5 13.5L31 25L30.7 10.9L25.5 24.5L22.5 10L19.5 24.5L14.3 10.9L14 25L6.5 13.5L9 26Z" fill="#29113C" stroke="#29113C" stroke-width="1.5" stroke-linejoin="round"/>
<path fill-rule="evenodd" clip-rule="evenodd" d="M9 26C9 28 10.5 28 11.5 30C12.5 31.5 12.5 31 12 33.5C10.5 34.5 10.5 36 10.5 36C9 37.5 11 38.5 11 38.5C17.5 39.5 27.5 39.5 34 38.5C34 38.5 35.5 37.5 34 36C34 36 34.5 34.5 33 33.5C32.5 31 32.5 31.5 33.5 30C34.5 28 36 28 36 26C27.5 24.5 17.5 24.5 9 26Z" fill="#29113C" stroke="#29113C" stroke-width="1.5" stroke-linejoin="round"/>
<path d="M11 38.5C18.4478 41.091 26.5522 41.091 34 38.5" stroke="#29113C" stroke-width="1.5" stroke-linejoin="round"/>
<path d="M11 29C18.4478 26.409 26.5522 26.409 34 29M12.5 31.5H32.5M11.5 34.5C18.6427 36.8647 26.3573 36.8647 33.5 34.5M10.5 37.5C18.25 40.3286 26.75 40.3286 34.5 37.5" stroke="#F0E9E9" stroke-width="1.5" stroke-linecap="round" stroke-linejoin="round"/>
</svg>

<svg xmlns="http://www.w3.org/2000/svg" width="45" height="45"><g fill-rule="evenodd" stroke="#29113C" stroke-width="1.5" stroke-linecap="round" stroke-linejoin="round"><g stroke="none"><circle cx="6" cy="12" r="2.75" fill="#29113C"/><circle cx="14" cy="9" r="2.75" fill="#29113C"/><circle cx="22.5" cy="8" r="2.75" fill="#29113C"/><circle cx="31" cy="9" r="2.75" fill="#29113C"/><circle cx="39" cy="12" r="2.75" fill="#29113C"/></g><path d="M9 26c8.5-1.5 21-1.5 27 0l2.5-12.5L31 25l-.3-14.1-5.2 13.6-3-14.5-3 14.5-5.2-13.6L14 25 6.5 13.5 9 26z" stroke-linecap="butt" fill="#29113C"/><path d="M9 26c0 2 1.5 2 2.5 4 1 1.5 1 1 .5 3.5-1.5 1-1.5 2.5-1.5 2.5-1.5 1.5.5 2.5.5 2.5 6.5 1 16.5 1 23 0 0 0 1.5-1 0-2.5 0 0 .5-1.5-1-2.5-.5-2.5-.5-2 .5-3.5 1-2 2.5-2 2.5-4-8.5-1.5-18.5-1.5-27 0z" stroke-linecap="butt" fill="#29113C"/><path d="M11 38.5a35 35 1 0 0 23 0" fill="none" stroke-linecap="butt"/><path d="M11 29a35 35 1 0 1 23 0m-21.5 2.5h20m-21 3a35 35 1 0 0 22 0m-23 3a35 35 1 0 0 24 0" fill="none" stroke="#A76390"/></g></svg>
